X: 38070
T: Spirit Of Whiskey, The
R: slip jig
M: 9/8
K: Eminor
|:B2 A BGE BGE|B2 A BGE AFD|B/c/BA BGE B2 E|A2 A ABG FED:|
B2 A BcB ABA|G2 A BcB AFD|B2 A BcB A2 ^c|d2 c AB/A/G FED:|

